!!!OTL: Der Abram ist gestorben (3-21), S. 54
!!!id: K1158
**kern
*clefG2
*k[b-]
*F:
{8c
=1
8.f
16e
8f
8g
=2
4a
4g
=3
4f}
8r
=4
{8g
=5
8.a
16g
8a
8b-
=6
4cc
4b-
=7
4a}
4r
=8
{8cc
8cc
8cc
8a
=9
8dd
8dd
4dd}
=10
{8b-
8b-
8b-
8g
=11
8cc
8cc
8cc
8c}
=12
{8.f
16e
8f
8g
=13
4a
4g
=14
4f}
8r
==
*-
!!!minrhy: 16
!!!meters: 2/4 ]  ZZ[5
!!!cut: Der Abram ist gestorben (3-21), S. 54
!!!reg: Luxemburg
!!!trd: KINTZELE, Guillaume: An der Ucht, Bd. 3 Luxemburg 1928
!!!rhy1: X_  X_.XX_X_  X__X__  X__0_
!!!rhy2: X_  X_.XX_X_  X__X__  X__0__
!!!key: K1158  16  F 2/4 ]  ZZ[5
!!!mod: HEPTATONIK IONISCH]  AMBITUS[9
!!!kad: 136-51
!!!akz: 131_353_56_45_131_
!!!fot: 'a__as'as"as"av_
!!!for: 'a__av_b__bw_av_
!!!fok: '^a_^a_Va_\__^__
!! PHRAS[GEMISCHTTAKTIG]
!!!fkt: historisches, Legendenlied
!!!bem: in der Quelle mit einer 2. Stimme versehen
!! KINTZELE
!! PR[37] 2K[0] 2G[6] 3K[11] 3G[6] 4A[6] 4Ü[0] 5A[0] 6K[0] 6G[0]
!! 7K[3] 7G[0] 8A[0] MEHR[0] SI[31] ABS[35] SR[6] SP[26]
!! ST[12] 2k[6] 2g[11] 3k[3] 3g[3] 4d[6] 4ü[0] 5d[0] 6k[0] 6g[0]
!! 7k[0] 7g[0] 8d[3] mehr[0] si[31] dm[0] sr[17] sp[14]
!! 1F[10] 2F[56] 3F[23] 4F[0] LF[0] 2P[10] 3P[0] 4P[0] TRI[0] DF[4] AB[39]
!! TF[0] U3K[0] U3[0] U4[0] U4Ü[0] U5[8] U6K[0] U6[0] U7K[0] U7[0]
!! N1[17] N2K[0] N2[8] N3K[0] N3[25] N4[17] N4Ü[0] N5[11] N6K[0] N6[8]
!!!n7k: 0] N7[3] O1[3] O2K[0] O2[0] O3K[0] O3[0] HÖ[0
